projects/seb-pictograms/svg/regular/11-Picto-Regular_black.svg

<svg xmlns="http://www.w3.org/2000/svg" viewBox="0 0 170 170"><path d="M85 149a45 45 0 0044.1-35.4h6a17.3 17.3 0 0017.3-17.2V71.6a3 3 0 00-3-3H130v-5.1a3 3 0 00-3-3H43a3 3 0 00-3 3v40.8A44.9 44.9 0 0085 149zm61.3-74.4v21.8a11.3 11.3 0 01-11.3 11.2h-5.1c.1-1.1.1-2.2.1-3.3V74.6zM46 66.5h78v37.8a39 39 0 01-78.1 0zm32.4-43.6A18.3 18.3 0 0096.7 4.8h-6a12.3 12.3 0 01-12.3 12.1 18.3 18.3 0 00-18.3 18.2h6a12.3 12.3 0 0112.3-12.2zm7.3 25.4h6A12.3 12.3 0 01104 36.1a18.3 18.3 0 0018.3-18.2h-6A12.3 12.3 0 01104 30.1a18.3 18.3 0 00-18.3 18.2z"/><path d="M159 145.6a13.4 13.4 0 01-13.4 13.4H24.4A13.4 13.4 0 0111 145.6H5A19.4 19.4 0 0024.4 165h121.2a19.4 19.4 0 0019.4-19.4z"/></svg>

<svg id="PIKTO_REGULAR" xmlns="http://www.w3.org/2000/svg" viewBox="0 0 170 170"><title>regular_black</title><path d="M85,149a45,45,0,0,0,44.1-35.4h6a17.3,17.3,0,0,0,17.3-17.2V71.6a3,3,0,0,0-3-3H130V63.5a3,3,0,0,0-3-3H43a3,3,0,0,0-3,3v40.8A44.9,44.9,0,0,0,85,149Zm61.3-74.4V96.4A11.3,11.3,0,0,1,135,107.6h-5.1c.1-1.1.1-2.2.1-3.3V74.6ZM46,66.5H124v37.8a39,39,0,0,1-78.1,0Z"/><path d="M78.4,22.9A18.3,18.3,0,0,0,96.7,4.8h-6A12.3,12.3,0,0,1,78.4,16.9,18.3,18.3,0,0,0,60.1,35.1h6A12.3,12.3,0,0,1,78.4,22.9Z"/><path d="M85.7,48.3h6A12.3,12.3,0,0,1,104,36.1a18.3,18.3,0,0,0,18.3-18.2h-6A12.3,12.3,0,0,1,104,30.1,18.3,18.3,0,0,0,85.7,48.3Z"/><path d="M159,145.6A13.4,13.4,0,0,1,145.6,159H24.4A13.4,13.4,0,0,1,11,145.6H5A19.4,19.4,0,0,0,24.4,165H145.6A19.4,19.4,0,0,0,165,145.6Z"/></svg>
